Papirus/48x48/apps/chromium-dev.svg

<svg xmlns="http://www.w3.org/2000/svg" width="48" height="48" version="1">
 <circle style="opacity:0.2" cx="24" cy="25" r="20"/>
 <path style="fill:#396bd7" d="m 23.968988,4 c -7.005883,0 -13.131287,3.5921321 -16.6939388,9.026506 -0.1258811,8.142666 5.0483218,10.98029 8.7992898,15.242074 -0.689964,-1.274337 -1.09236,-2.721584 -1.09236,-4.278775 0,-4.983408 4.038837,-6.44225 8.986509,-6.996362 l 17.848206,-1.99896 C 38.540612,8.4584816 31.798733,4.0001999 23.968488,4.0001999 Z"/>
 <path style="fill:#6199f6" d="m 10.455309,33.043466 c 3.502941,6.073242 4.838407,3.595142 11.321575,3.965749 6.912822,-3.814216 11.651603,-1.67211 9.861889,-8.258086 -0.757862,1.235658 -1.808684,2.3076 -3.156062,3.086196 -2.140985,1.237356 -4.123309,-0.06317 -6.329997,-0.642696 -2.237141,-0.587465 -4.692655,-0.477172 -5.945774,-2.649822 L 7.281839,13.071853 c -2.7844159,4.234938 -3.8722838,9.413754 -2.9733468,14.454202 0.3977635,2.230309 4.0242277,2.051982 5.2251325,4.13435 z"/>
 <path style="fill:#a2c2fa" d="m 37.021012,31.452015 c 1.206282,-2.091398 6.289767,-1.770064 6.68204,-4.011084 0.746857,-4.266713 0.06811,-8.631891 -1.846827,-12.437853 l -17.586599,0.007 c 1.448027,0.03918 2.900845,0.414134 4.248223,1.19278 2.304141,1.331607 2.087566,3.962839 2.597201,6.367688 0.444023,2.095111 1.851021,3.910767 0.692061,5.920122 L 22.576013,39.12271 c 7.293051,0.427778 9.993025,-2.111807 13.908147,-8.900277 z"/>
 <rect opacity=".2" width="18" height="18" x="-33.98" y="-33" rx="9" ry="9" transform="matrix(0,-1,-1,0,0,0)"/>
 <rect style="fill:#ffffff" width="18" height="18" x="-33" y="-33" rx="9" ry="9" transform="matrix(0,-1,-1,0,0,0)"/>
 <rect style="fill:#4688f4" width="14" height="14" x="-31" y="-31" rx="7" ry="7" transform="matrix(0,-1,-1,0,0,0)"/>
 <path style="fill:#315072" d="M 4.2406046,27.008835 A 19.97002,19.989605 0 0 0 23.9688,44 19.97002,19.989605 0 0 0 43.687245,27.008835 Z"/>
 <path style="opacity:0.2" d="m 14.999813,31 v 8 h 2.08789 c 1.230768,0 2.187731,-0.339793 2.873047,-1.019531 0.692307,-0.687209 1.039062,-1.706587 1.039062,-3.058594 0,-0.851541 -0.150473,-1.569711 -0.451172,-2.152344 C 20.247941,32.186898 19.817066,31.746052 19.257625,31.447266 18.705178,31.148479 18.056658,31 17.308406,31 Z m 0.943359,0.863281 h 1.228515 c 0.902098,0 1.596427,0.249534 2.085938,0.75 0.496504,0.492998 0.746094,1.273636 0.746094,2.341797 0,2.121381 -1.014998,3.181641 -3.042969,3.181641 H 15.943172 Z M 24.587703,33 c -0.516739,0 -0.972221,0.122582 -1.365234,0.367188 -0.385736,0.244604 -0.68791,0.593637 -0.90625,1.046874 -0.211063,0.453238 -0.316407,0.995814 -0.316407,1.628907 0,0.647482 0.116712,1.190057 0.34961,1.628906 0.240175,0.438849 0.572016,0.77112 0.99414,0.994141 C 23.765688,38.889038 24.255811,39 24.816219,39 c 0.40029,0 0.745989,-0.03291 1.037109,-0.09766 0.29112,-0.05755 0.586367,-0.149803 0.884766,-0.279297 v -0.832031 c -0.305677,0.129496 -0.60341,0.230794 -0.894532,0.302734 -0.283843,0.06475 -0.613195,0.09766 -0.984375,0.09766 -0.582241,0 -1.035769,-0.169683 -1.363281,-0.507812 -0.320236,-0.345324 -0.487403,-1.046495 -0.501953,-1.701172 h 0.0059 V 36 h 4 v -0.388672 c 0,-0.52518 -0.09841,-0.982605 -0.294922,-1.371094 C 26.515661,33.844553 26.238713,33.540046 25.874812,33.324219 25.510912,33.108392 25.082609,33 24.587703,33 Z m 3.212891,0 2.197265,6 h 1.09375 l 2.208984,-6 h -1.017578 l -1.234375,3.537109 c -0.05774,0.164179 -0.120587,0.347336 -0.185546,0.548829 -0.06496,0.19403 -0.125855,0.388001 -0.183593,0.582031 -0.05774,0.186567 -0.09749,0.339581 -0.119141,0.458984 H 30.51739 C 30.49574,38.00755 30.46049,37.854536 30.409968,37.667969 30.359448,37.481401 30.3011,37.28743 30.23614,37.085938 30.17118,36.884445 30.110286,36.701288 30.052546,36.537109 L 28.818172,33 Z m -3.22461,0.777344 c 0.487627,0 0.844693,0.153537 1.070313,0.46289 0.152954,0.204841 0.236457,0.468961 0.289062,0.759766 H 23.11114 c 0.0803,-0.308049 0.192313,-0.582745 0.373047,-0.78125 0.269287,-0.294965 0.633283,-0.441406 1.091797,-0.441406 z"/>
 <path style="fill:#ffffff" d="m 20.999812,33.921569 q 0,2.028011 -1.038461,3.058824 Q 18.933378,38 17.087226,38 h -2.087413 v -8 h 2.307691 q 1.122379,0 1.95105,0.44818 0.839161,0.448179 1.29021,1.322129 0.451048,0.873949 0.451048,2.15126 z m -0.996504,0.03361 q 0,-1.602242 -0.744755,-2.341738 -0.734266,-0.750699 -2.087413,-0.750699 h -1.227272 v 6.274509 h 1.017483 q 3.041957,0 3.041957,-3.182072 z"/>
 <path style="fill:#ffffff" d="m 24.587703,32 c -0.516739,0 -0.972221,0.122582 -1.365234,0.367188 -0.385736,0.244605 -0.68791,0.593637 -0.90625,1.046874 -0.211063,0.453237 -0.316407,0.995814 -0.316407,1.628907 0,0.647482 0.116712,1.190057 0.34961,1.628906 0.240175,0.438849 0.572016,0.77112 0.99414,0.994141 C 23.765688,37.889038 24.255811,38 24.816219,38 c 0.40029,0 0.745989,-0.03291 1.037109,-0.09766 0.29112,-0.05755 0.586367,-0.149803 0.884766,-0.279297 v -0.832031 c -0.305677,0.129496 -0.60341,0.230794 -0.894532,0.302734 -0.283843,0.06475 -0.613195,0.09766 -0.984375,0.09766 -0.582241,0 -1.035769,-0.169683 -1.363281,-0.507812 -0.320236,-0.345324 -0.487403,-1.046495 -0.501953,-1.701172 h 0.0059 V 35 h 4 v 0 -0.388674 c 0,-0.52518 -0.09841,-0.982605 -0.294922,-1.371094 C 26.515661,32.844551 26.238713,32.540046 25.874812,32.324219 25.510912,32.108392 25.082609,32 24.587703,32 Z m -0.01172,0.777344 c 0.487627,0 0.844693,0.153537 1.070312,0.46289 0.152955,0.204841 0.236458,0.468961 0.289063,0.759766 h -2.824219 c 0.0803,-0.308049 0.192313,-0.582745 0.373047,-0.78125 0.269287,-0.294965 0.633282,-0.441406 1.091797,-0.441406 z"/>
 <path style="fill:#ffffff" d="m 29.997645,38 -2.197832,-6 h 1.017714 l 1.234253,3.537314 q 0.08661,0.246268 0.184056,0.548507 0.09744,0.302239 0.173227,0.58209 0.07579,0.279851 0.108268,0.458955 h 0.04331 q 0.03248,-0.179104 0.119094,-0.458955 0.08661,-0.291045 0.184054,-0.58209 0.09744,-0.302239 0.184056,-0.548507 L 32.282097,32 h 1.017715 l -2.20866,6 z"/>
 <path style="opacity:0.2;fill:#ffffff" d="M 24 4 A 20 20 0 0 0 4 24 A 20 20 0 0 0 4.0214844 24.582031 A 20 20 0 0 1 24 5 A 20 20 0 0 1 43.978516 24.417969 A 20 20 0 0 0 44 24 A 20 20 0 0 0 24 4 z"/>
</svg>

<svg xmlns="http://www.w3.org/2000/svg" width="48" height="48" version="1">
 <circle style="opacity:0.2" cx="24" cy="25" r="20"/>
 <path style="fill:#396bd7" d="M 23.969,4 C 16.963,4 10.838,7.592 7.275,13.026 7.149,21.169 12.323,24.006 16.074,28.268 15.384,26.994 14.982,25.546 14.982,23.989 14.982,19.006 19.021,17.547 23.969,16.993 L 41.817,14.994 C 38.541,8.459 31.799,4 23.968,4 Z"/>
 <path style="fill:#6199f6" d="M 6.695,34.042 C 10.198,40.115 16.369,41.629 22.852,42 29.765,38.186 33.429,35.337 31.639,28.751 30.881,29.987 29.83,31.059 28.483,31.837 26.342,33.074 24.36,31.774 22.153,31.194 19.916,30.607 17.46,30.717 16.207,28.544 L 7.282,13.072 C 3.265,19.181 2.779,27.254 6.694,34.042 Z"/>
 <path style="fill:#a2c2fa" d="M 41.319,33.987 C 44.822,27.914 44.777,20.808 41.856,15.003 L 24.269,15.01 C 25.717,15.049 27.17,15.424 28.517,16.203 30.821,17.535 30.605,20.166 31.114,22.571 31.558,24.666 33.087,26.557 31.806,28.491 L 22.883,41.963 C 30.176,42.391 37.404,40.776 41.319,33.987 Z"/>
 <path style="opacity:0.2;fill:#ffffff" d="M 24,4 A 20,20 0 0 0 4,24 20,20 0 0 0 4.0215,24.582 20,20 0 0 1 24,5 20,20 0 0 1 43.979,24.418 20,20 0 0 0 44,24 20,20 0 0 0 24,4 Z"/>
 <circle style="opacity:0.2" cx="24" cy="25" r="9"/>
 <circle style="fill:#ffffff" cx="24" cy="24" r="9"/>
 <circle style="fill:#4688f4" cx="24" cy="24" r="7"/>
 <path style="fill:#315072" d="M 4.241,27.009 A 19.97,19.99 0 0 0 23.969,44 19.97,19.99 0 0 0 43.687,27.009 Z"/>
 <path style="opacity:0.2" d="M 15,31 V 39 H 17.088 C 18.318,39 19.275,38.66 19.961,37.98 20.653,37.293 21,36.274 21,34.922 21,34.07 20.849,33.352 20.549,32.77 20.248,32.187 19.817,31.746 19.258,31.447 18.705,31.148 18.057,31 17.308,31 Z M 15.943,31.863 H 17.172 C 18.074,31.863 18.768,32.113 19.258,32.613 19.754,33.106 20.004,33.887 20.004,34.955 20.004,37.076 18.989,38.137 16.961,38.137 H 15.943 Z M 24.588,33 C 24.071,33 23.615,33.123 23.222,33.367 22.837,33.612 22.535,33.961 22.316,34.414 22.105,34.867 22,35.41 22,36.043 22,36.69 22.117,37.233 22.349,37.672 22.59,38.111 22.921,38.443 23.344,38.666 23.766,38.889 24.256,39 24.816,39 25.217,39 25.562,38.967 25.853,38.902 26.144,38.845 26.44,38.753 26.738,38.623 V 37.791 C 26.432,37.921 26.135,38.022 25.844,38.094 25.56,38.158 25.23,38.191 24.859,38.191 24.277,38.191 23.823,38.022 23.496,37.684 23.176,37.338 23.015,36.655 23,36 H 27 V 35.611 C 27,35.086 26.901,34.629 26.705,34.24 26.516,33.845 26.239,33.54 25.875,33.324 25.511,33.108 25.083,33 24.588,33 Z M 27.801,33 29.998,39 H 31.092 L 33.301,33 H 32.283 L 31.049,36.537 30.56,38.127 H 30.517 L 30.053,36.537 28.818,33 Z M 24.576,33.777 C 25.064,33.777 25.421,33.931 25.646,34.24 25.799,34.445 25.883,34.709 25.935,35 H 23.111 C 23.191,34.692 23.303,34.417 23.484,34.219 23.753,33.924 24.117,33.777 24.576,33.777 Z"/>
 <path style="fill:#ffffff" d="M 29.998,38 27.8,32 H 28.818 L 30.052,35.537 30.517,37.127 H 30.561 L 31.048,35.537 32.282,32 H 33.3 L 31.091,38 Z M 27,35 V 34.611 C 27,34.086 26.901,33.629 26.705,33.24 26.516,32.845 26.239,32.54 25.875,32.324 25.511,32.108 25.083,32 24.588,32 24.071,32 23.615,32.123 23.222,32.367 22.837,32.612 22.535,32.961 22.316,33.414 22.105,33.867 22,34.41 22,35.043 22,35.69 22.117,36.233 22.349,36.672 22.59,37.111 22.921,37.443 23.344,37.666 23.766,37.889 24.256,38 24.816,38 25.217,38 25.562,37.967 25.853,37.902 26.144,37.845 26.44,37.753 26.738,37.623 V 36.791 C 26.432,36.921 26.135,37.022 25.844,37.094 25.56,37.158 25.23,37.191 24.859,37.191 24.277,37.191 23.823,37.022 23.496,36.684 23.176,36.338 23.015,35.655 23,35 M 24.576,32.777 C 25.064,32.777 25.421,32.931 25.646,33.24 25.799,33.445 25.883,33.709 25.935,34 H 23.111 C 23.191,33.692 23.303,33.417 23.484,33.219 23.753,32.924 24.117,32.777 24.576,32.777 Z M 21,33.922 C 21,35.274 20.654,36.293 19.961,36.98 19.276,37.66 18.318,38 17.087,38 H 15 V 30 H 17.308 C 18.056,30 18.706,30.149 19.259,30.448 19.818,30.747 20.248,31.188 20.549,31.77 20.849,32.353 21,33.07 21,33.922 Z M 20.003,33.955 C 20.003,32.887 19.755,32.106 19.259,31.613 18.769,31.113 18.073,30.863 17.171,30.863 H 15.944 V 37.137 H 16.961 C 18.989,37.137 20.003,36.077 20.003,33.955 Z"/>
</svg>
